X:1
T:Title
%%score { ( 1 3 ) | 2 }
L:1/8
Q:1/4=100
M:4/4
K:G
V:1 treble nm="Grand Piano"
V:3 treble 
V:2 bass 
V:1
 [G,B,D]2 [B,DG]>[CDA] [DGB] [DGB]2 [B,DG] | [CDA]2 [DB]>[CDA] [CDA] [B,DG]3 | %2
w: Robert~Lowry * * * * *||
 [CEG]2 [CEA][CEG] [G,CE][G,CG] [B,D]2 | z4 [FA]4 | D2 G>A BBAG | A2 B>A [CDA] [B,DG]3 | %6
w: ||||
 [G,EG]2 [G,DF][G,CE] [B,D][B,G][DG][EA] | [DB]2 [CDA]2 [B,DG]4 | [FA]2 [FA]>[GB] [FA] [DF]2 [DF] | %9
w: |||
 [^CA]2 [EG]>[CE] [DF] [FA]3 | [GB][Bd][A^c]B A2 F2 | [^CE][EG][DF][CE] z2 =C2 | %12
w: |||
 [B,D]2 [DG]>A B B2 G | [CEA][D^GB][EAc][CEA] .=G2 z C | G2 AB dcBA | z2 F2 z4 |] %16
w: ||||
V:2
 G,,2 G,,>G,, G,, G,,2 G,, | D,2 D,>D, G,, G,,3 | C,2 C,C, C,E, G,2 | E,2 B,,E, D,4 | %4
 [G,B,]2[K:treble] [G,B,D]>[G,CD] [G,DG][G,DG][G,CD][K:bass][G,B,D] | %5
 [D,CD]2 [D,D]>[D,CD] G,, G,,3 | C,2 C,C, [G,,G,][G,,G,][B,,G,][C,G,] | [D,G,]2 D,2 G,,4 | %8
 [D,D]2 [D,D]>[D,D] [D,D] [D,A,]2 [D,A,] | [A,,A,]2 [A,,A,]>[A,,A,] [D,A,] [D,D]3 | %10
 [G,D]2 [G,D][G,DG] [A,DF]2 [A,D]2 | [A,,A,][A,,A,][A,,A,][A,,G,] [D,F,]4 | %12
 [G,,G,]2 [B,,G,]>[D,F,D] [G,D] [G,D]2 [G,B,D] | C,B,,A,,C, [D,B,D] .[D,A,D]3 | %14
 [E,G,B,]2 [D,F,D][G,D] [G,B,D][F,A,D][G,D][C,CD] | [D,B,D]2 .[D,A,D]2 G,,4 |] %16
V:3
 x8 | x8 | x8 | [B,EG]2 [B,^DF][B,EG] =D2 C2 | x8 | x8 | x8 | x8 | x8 | x8 | x8 | z4 D4 | x8 | %13
 z4 z F3 | x8 | G2 z C [B,DG]4 |] %16

